assets/images/smile.svg

<svg fill="none" height="26" viewBox="0 0 26 26" width="26" xmlns="http://www.w3.org/2000/svg"><path d="m23 13c0-2.6522-1.0536-5.1957-2.9289-7.07107-1.8754-1.87536-4.4189-2.92893-7.0711-2.92893s-5.1957 1.05357-7.07107 2.92893c-1.87536 1.87537-2.92893 4.41887-2.92893 7.07107s1.05357 5.1957 2.92893 7.0711c1.87537 1.8753 4.41887 2.9289 7.07107 2.9289s5.1957-1.0536 7.0711-2.9289c1.8753-1.8754 2.9289-4.4189 2.9289-7.0711zm2.5 0c0 3.3152-1.317 6.4946-3.6612 8.8388s-5.5236 3.6612-8.8388 3.6612c-1.6415 0-3.26697-.3233-4.78354-.9515s-2.89456-1.5489-4.05529-2.7097c-2.34421-2.3442-3.66117-5.5236-3.66117-8.8388 0-3.31521 1.31696-6.49463 3.66117-8.83883 2.3442-2.34421 5.52362-3.66117 8.83883-3.66117 1.6415 0 3.267.323322 4.7835.95151 1.5166.62818 2.8946 1.54892 4.0553 2.70966 1.1608 1.16073 2.0815 2.53872 2.7097 4.05529s.9515 3.14204.9515 4.78354zm-15-3.125c0 1-.875 1.875-1.875 1.875s-1.875-.875-1.875-1.875.875-1.875 1.875-1.875 1.875.875 1.875 1.875zm8.75 0c0 1-.875 1.875-1.875 1.875s-1.875-.875-1.875-1.875.875-1.875 1.875-1.875 1.875.875 1.875 1.875zm-6.25 9.6625c-2.1875 0-4.1125-.9125-5.2375-2.2625l1.775-1.775c.5625.9 1.9 1.5375 3.4625 1.5375s2.9-.6375 3.4625-1.5375l1.775 1.775c-1.125 1.35-3.05 2.2625-5.2375 2.2625z" fill="#fff"/></svg>

<svg width="26" height="26" viewBox="0 0 26 26" fill="none" xmlns="http://www.w3.org/2000/svg"><path d="M23 13C23 10.3478 21.9464 7.8043 20.0711 5.92893C18.1957 4.05357 15.6522 3 13 3C10.3478 3 7.8043 4.05357 5.92893 5.92893C4.05357 7.8043 3 10.3478 3 13C3 15.6522 4.05357 18.1957 5.92893 20.0711C7.8043 21.9464 10.3478 23 13 23C15.6522 23 18.1957 21.9464 20.0711 20.0711C21.9464 18.1957 23 15.6522 23 13ZM25.5 13C25.5 16.3152 24.183 19.4946 21.8388 21.8388C19.4946 24.183 16.3152 25.5 13 25.5C11.3585 25.5 9.73303 25.1767 8.21646 24.5485C6.69989 23.9203 5.3219 22.9996 4.16117 21.8388C1.81696 19.4946 0.5 16.3152 0.5 13C0.5 9.68479 1.81696 6.50537 4.16117 4.16117C6.50537 1.81696 9.68479 0.5 13 0.5C14.6415 0.5 16.267 0.823322 17.7835 1.45151C19.3001 2.07969 20.6781 3.00043 21.8388 4.16117C22.9996 5.3219 23.9203 6.69989 24.5485 8.21646C25.1767 9.73303 25.5 11.3585 25.5 13ZM10.5 9.875C10.5 10.875 9.625 11.75 8.625 11.75C7.625 11.75 6.75 10.875 6.75 9.875C6.75 8.875 7.625 8 8.625 8C9.625 8 10.5 8.875 10.5 9.875ZM19.25 9.875C19.25 10.875 18.375 11.75 17.375 11.75C16.375 11.75 15.5 10.875 15.5 9.875C15.5 8.875 16.375 8 17.375 8C18.375 8 19.25 8.875 19.25 9.875ZM13 19.5375C10.8125 19.5375 8.8875 18.625 7.7625 17.275L9.5375 15.5C10.1 16.4 11.4375 17.0375 13 17.0375C14.5625 17.0375 15.9 16.4 16.4625 15.5L18.2375 17.275C17.1125 18.625 15.1875 19.5375 13 19.5375Z" fill="#fff"/></svg>
